X:20
T:Belgian Waltz,bass part. JNu.18
M:3/8
L:1/8
Q:40
S:James Nuttall MS,c1830?,Rossendale,East Lancs.
R:.Waltz
O:England
A:East Lancashire
Z:vmp.Chris Partington
K:F
|:z|”^For a transposing instrument?”.F,.F,.F,|.F,.F,.F,|.C,.C,.C,|.F,.F,.F,|\
.F,.F,.F,|.F,.F,,.F,,|.C,.C,.C,|.F,2:|!
|:.F,,.F,,.F,,|.F,,2.F,,|.F,.F,.F,|.F,2.F,|\
.F,.F,.F,|.F,2.F,|.F,,.F,,.F,,|.F,,2:|

